Yosa-Max/places/16x16/mail-folder-sent.svg

<?xml version="1.0" encoding="UTF-8"?>
<svg id="svg6" version="1.1" viewBox="0 0 16 16" xmlns="http://www.w3.org/2000/svg">
 <defs id="defs3051">
  <style id="current-color-scheme" type="text/css">.ColorScheme-Text {
        color:#4d4d4d;
      }</style>
 </defs>
 <path id="path4" class="ColorScheme-Text" d="m10.939453 2.9667969c-1.3954211 0-2.5749571 0.4759895-3.5390624 1.4316406-0.9556511 0.9556511-1.4335937 2.1117118-1.4335937 3.4648437 0 1.3615907 0.4779426 2.5189578 1.4335937 3.4746098 0.9556511 0.947197 2.1351871 1.421875 3.5390624 1.421875 0.718851 0 1.374801-0.135619 1.966797-0.40625l-0.355469-0.863282c-0.473596 0.236796-1.010877 0.355469-1.611328 0.355469-1.116336 0-2.0637436-0.384702-2.8417968-1.154297-0.7780485-0.7695941-1.1660156-1.7117886-1.1660156-2.8281248 0-1.1163315 0.3879671-2.0604837 1.1660156-2.8300781 0.7780532-0.7695943 1.7254608-1.1542969 2.8417968-1.1542969 1.116332 0 2.063744 0.3847026 2.841797 1.1542969 0.778053 0.7695944 1.166016 1.7137466 1.166016 2.8300781 0 1.2093645-0.299936 1.8125-0.900391 1.8125-0.253713 0-0.443458-0.088027-0.570313-0.265625-0.1184-0.1775979-0.177734-0.3758203-0.177734-0.5957031v-3.3105469h-0.914062v0.5703126h-0.050782c-0.431311-0.498968-0.971848-0.7480469-1.623046-0.7480469-0.659653 0-1.2256231 0.2438658-1.6992192 0.734375-0.4735962 0.4905137-0.7109376 1.109293-0.7109376 1.8535156 0 0.7526813 0.2373414 1.3727721 0.7109376 1.8632813 0.4735961 0.4820552 1.0565162 0.7246092 1.7500002 0.7246092 0.769594 0 1.360992-0.310366 1.77539-0.9277342 0.312912 0.6173682 0.787594 0.9277342 1.421875 0.9277342 0.617369 0 1.086838-0.251032 1.408204-0.7499999 0.329828-0.4989679 0.49414-1.1275317 0.49414-1.8886719 0-1.3531319-0.472729-2.5091926-1.419922-3.4648437-0.947197-0.9556511-2.114995-1.4316406-3.501953-1.4316406zm-10.304687 2.2636719c-0.04934674 0-0.09290571 0.0186869-0.13085937 0.0566406l-0.28320313 0.2851562c-0.03802355 0.0379537-0.05859374 0.0814428-0.05859374 0.1308594s0.02057019 0.0929057 0.05859374 0.1308594l2.2363281 2.2382812-2.2363281 2.2382814c-0.03802355 0.037954-0.05859374 0.081582-0.05859374 0.130859 0 0.049417 0.02057019 0.092906 0.05859374 0.13086l0.28320313 0.283203c0.03795366 0.038023 0.08151263 0.058593 0.13085937 0.058593 0.04934675 0 0.09485884-0.02064 0.1328125-0.058593l2.6523438-2.652344c0.0380235-0.0379537 0.0566406-0.0815126 0.0566406-0.1308594 0-0.0493467-0.0186171-0.0928358-0.0566406-0.1308594l-2.6523438-2.6542968c-0.03795366-0.0379537-0.08346575-0.0566406-0.1328125-0.0566406zm2.1875 0c-0.0493467 0-0.0929057 0.0186869-0.1308594 0.0566406l-0.2851562 0.2851562c-0.0379537 0.0379537-0.0566406 0.0814428-0.0566406 0.1308594s0.0186869 0.0929057 0.0566406 0.1308594l2.2382812 2.2382812-2.2382812 2.2382814c-0.0379537 0.037954-0.0566406 0.081582-0.0566406 0.130859 0 0.049417 0.0186869 0.092906 0.0566406 0.13086l0.2851562 0.283203c0.0379537 0.038023 0.0815127 0.058593 0.1308594 0.058593 0.0494167 0 0.0929756-0.02064 0.1308594-0.058593l2.6542969-2.652344c0.0379536-0.0379537 0.0566406-0.0815126 0.0566406-0.1308594 0-0.0493467-0.0187569-0.0928358-0.0566406-0.1308594l-2.6542969-2.6542968c-0.0378838-0.0379537-0.0815126-0.0566406-0.1308594-0.0566406zm8.0273434 1.0585937c0.422858 0 0.78408 0.1493143 1.080079 0.4453125 0.304452 0.2959982 0.455078 0.6891783 0.455078 1.1796875s-0.150626 0.8836893-0.455078 1.1796875c-0.295999 0.2959982-0.657221 0.4433594-1.080079 0.4433594-0.422852 0-0.785386-0.1473612-1.0898434-0.4433594-0.2959981-0.2959982-0.4433594-0.6891783-0.4433594-1.1796875s0.1473613-0.8836893 0.4433594-1.1796875c0.3044574-0.2959982 0.6669914-0.4453125 1.0898434-0.4453125z" style="fill:#4d4d4d"/>
</svg>

<?xml version="1.0" encoding="UTF-8" standalone="no"?>
<svg
   xmlns:dc="http://purl.org/dc/elements/1.1/"
   xmlns:cc="http://creativecommons.org/ns#"
   xmlns:rdf="http://www.w3.org/1999/02/22-rdf-syntax-ns#"
   xmlns:svg="http://www.w3.org/2000/svg"
   xmlns="http://www.w3.org/2000/svg"
   xmlns:sodipodi="http://sodipodi.sourceforge.net/DTD/sodipodi-0.dtd"
   xmlns:inkscape="http://www.inkscape.org/namespaces/inkscape"
   viewBox="0 0 16 16"
   version="1.1"
   id="svg6"
   sodipodi:docname="mail-folder-sent.svg"
   inkscape:version="0.92.2 5c3e80d, 2017-08-06">
  <metadata
     id="metadata10">
    <rdf:RDF>
      <cc:Work
         rdf:about="">
        <dc:format>image/svg+xml</dc:format>
        <dc:type
           rdf:resource="http://purl.org/dc/dcmitype/StillImage" />
      </cc:Work>
    </rdf:RDF>
  </metadata>
  <sodipodi:namedview
     pagecolor="#ffffff"
     bordercolor="#666666"
     borderopacity="1"
     objecttolerance="10"
     gridtolerance="10"
     guidetolerance="10"
     inkscape:pageopacity="0"
     inkscape:pageshadow="2"
     inkscape:window-width="760"
     inkscape:window-height="480"
     id="namedview8"
     showgrid="false"
     inkscape:zoom="18.264648"
     inkscape:cx="0.66342298"
     inkscape:cy="8"
     inkscape:window-x="0"
     inkscape:window-y="0"
     inkscape:window-maximized="0"
     inkscape:current-layer="svg6" />
  <defs
     id="defs3051">
    <style
       type="text/css"
       id="current-color-scheme">
      .ColorScheme-Text {
        color:#4d4d4d;
      }
      </style>
  </defs>
  <path
     style="fill:#4d4d4d;fill-opacity:1;stroke:none"
     class="ColorScheme-Text"
     d="M 10.939453 2.9667969 C 9.5440319 2.9667969 8.3644959 3.4427864 7.4003906 4.3984375 C 6.4447395 5.3540886 5.9667969 6.5101493 5.9667969 7.8632812 C 5.9667969 9.2248719 6.4447395 10.382239 7.4003906 11.337891 C 8.3560417 12.285088 9.5355777 12.759766 10.939453 12.759766 C 11.658304 12.759766 12.314254 12.624147 12.90625 12.353516 L 12.550781 11.490234 C 12.077185 11.72703 11.539904 11.845703 10.939453 11.845703 C 9.823117 11.845703 8.8757094 11.461001 8.0976562 10.691406 C 7.3196077 9.9218119 6.9316406 8.9796174 6.9316406 7.8632812 C 6.9316406 6.7469497 7.3196077 5.8027975 8.0976562 5.0332031 C 8.8757094 4.2636088 9.823117 3.8789062 10.939453 3.8789062 C 12.055785 3.8789062 13.003197 4.2636088 13.78125 5.0332031 C 14.559303 5.8027975 14.947266 6.7469497 14.947266 7.8632812 C 14.947266 9.0726457 14.64733 9.6757812 14.046875 9.6757812 C 13.793162 9.6757812 13.603417 9.5877542 13.476562 9.4101562 C 13.358162 9.2325583 13.298828 9.0343359 13.298828 8.8144531 L 13.298828 5.5039062 L 12.384766 5.5039062 L 12.384766 6.0742188 L 12.333984 6.0742188 C 11.902673 5.5752508 11.362136 5.3261719 10.710938 5.3261719 C 10.051285 5.3261719 9.4853149 5.5700377 9.0117188 6.0605469 C 8.5381226 6.5510606 8.3007812 7.1698399 8.3007812 7.9140625 C 8.3007812 8.6667438 8.5381226 9.2868346 9.0117188 9.7773438 C 9.4853149 10.259399 10.068235 10.501953 10.761719 10.501953 C 11.531313 10.501953 12.122711 10.191587 12.537109 9.5742188 C 12.850021 10.191587 13.324703 10.501953 13.958984 10.501953 C 14.576353 10.501953 15.045822 10.250921 15.367188 9.7519531 C 15.697016 9.2529852 15.861328 8.6244214 15.861328 7.8632812 C 15.861328 6.5101493 15.388599 5.3540886 14.441406 4.3984375 C 13.494209 3.4427864 12.326411 2.9667969 10.939453 2.9667969 z M 0.63476562 5.2304688 C 0.58541888 5.2304688 0.54185991 5.2491557 0.50390625 5.2871094 L 0.22070312 5.5722656 C 0.18267957 5.6102193 0.16210938 5.6537084 0.16210938 5.703125 C 0.16210938 5.7525416 0.18267957 5.7960307 0.22070312 5.8339844 L 2.4570312 8.0722656 L 0.22070312 10.310547 C 0.18267957 10.348501 0.16210938 10.392129 0.16210938 10.441406 C 0.16210938 10.490823 0.18267957 10.534312 0.22070312 10.572266 L 0.50390625 10.855469 C 0.54185991 10.893492 0.58541888 10.914062 0.63476562 10.914062 C 0.68411237 10.914062 0.72962446 10.893422 0.76757812 10.855469 L 3.4199219 8.203125 C 3.4579454 8.1651713 3.4765625 8.1216124 3.4765625 8.0722656 C 3.4765625 8.0229189 3.4579454 7.9794298 3.4199219 7.9414062 L 0.76757812 5.2871094 C 0.72962446 5.2491557 0.68411237 5.2304688 0.63476562 5.2304688 z M 2.8222656 5.2304688 C 2.7729189 5.2304688 2.7293599 5.2491557 2.6914062 5.2871094 L 2.40625 5.5722656 C 2.3682963 5.6102193 2.3496094 5.6537084 2.3496094 5.703125 C 2.3496094 5.7525416 2.3682963 5.7960307 2.40625 5.8339844 L 4.6445312 8.0722656 L 2.40625 10.310547 C 2.3682963 10.348501 2.3496094 10.392129 2.3496094 10.441406 C 2.3496094 10.490823 2.3682963 10.534312 2.40625 10.572266 L 2.6914062 10.855469 C 2.7293599 10.893492 2.7729189 10.914062 2.8222656 10.914062 C 2.8716823 10.914062 2.9152412 10.893422 2.953125 10.855469 L 5.6074219 8.203125 C 5.6453755 8.1651713 5.6640625 8.1216124 5.6640625 8.0722656 C 5.6640625 8.0229189 5.6453056 7.9794298 5.6074219 7.9414062 L 2.953125 5.2871094 C 2.9152412 5.2491557 2.8716124 5.2304688 2.8222656 5.2304688 z M 10.849609 6.2890625 C 11.272467 6.2890625 11.633689 6.4383768 11.929688 6.734375 C 12.23414 7.0303732 12.384766 7.4235533 12.384766 7.9140625 C 12.384766 8.4045717 12.23414 8.7977518 11.929688 9.09375 C 11.633689 9.3897482 11.272467 9.5371094 10.849609 9.5371094 C 10.426757 9.5371094 10.064223 9.3897482 9.7597656 9.09375 C 9.4637675 8.7977518 9.3164062 8.4045717 9.3164062 7.9140625 C 9.3164062 7.4235533 9.4637675 7.0303732 9.7597656 6.734375 C 10.064223 6.4383768 10.426757 6.2890625 10.849609 6.2890625 z "
     id="path4" />
</svg>
